front/public/static/landing/logos/gray/hivebrite.svg

<svg fill="none" height="300" viewBox="0 0 600 300" width="600" xmlns="http://www.w3.org/2000/svg"><g fill="#364153"><path d="m123.097 93c-31.5313 0-57.097 25.566-57.097 57.097s25.5657 57.096 57.097 57.096c31.531 0 57.096-25.531 57.096-57.096 0-31.531-25.565-57.097-57.096-57.097zm-36.7467 35.826c.409-.75 1.1249-1.261 1.6362-1.534l33.3715-19.225c1.227-.716 2.42-.682 3.682.034l3.749 2.147c.171.068.341.307.307.648 0 .307-.204.545-.341.614l-14.453 8.385s-.136.068-.17.273c-.034.238.17.341.17.341l14.385 8.215c.136.034.375.272.409.647.068.41-.136.682-.307.784l-.647.375-19.055 11.079c-.068.034-.307.17-.375.409-.103.239-.068.341-.103.477v7.363c0 .136-.068.443-.374.614-.239.136-.512.034-.614 0l-5.25-3.034c-.102-.034-.272-.171-.375-.307-.102-.136-.102-.341-.102-.443l-.068-6.17c0-1.466.818-2.931 2.148-3.715l11.998-6.954s.171-.068.171-.273-.171-.341-.171-.341l-8.828-5.079c-.068-.034-.171-.034-.239 0l-13.9417 8.045c-.0682.034-.2727.17-.3409.307-.1363.238-.1363.443-.1363.545l-.1023 6.511c0 .068-.0341.341-.2386.545-.2386.205-.5454.17-.784.034l-5.2154-3s-.1705-.068-.2727-.238c-.1364-.171-.1364-.409-.1364-.477v-5.523c.1023-.545.2045-1.363.6136-2.079zm44.7227 41.11c-.068.136-.238.272-.307.306l-5.317 3.171c-1.261.75-2.966.75-4.261 0l-12.033-6.886s-.136-.102-.341 0-.205.307-.205.307l.035 10.158c0 .068.034.17.102.204l13.942 8.045c.068.034.272.136.443.136.273 0 .443-.102.545-.17l5.693-3.17c.068-.034.307-.137.579-.068.307.102.443.409.443.647v6s0 .17-.068.375c-.102.204-.307.306-.341.341l-4.772 2.761c-.545.238-1.329.545-2.147.545-.853 0-1.671-.341-2.148-.648l-33.3376-19.225c-1.2271-.716-1.8066-1.739-1.8066-3.204v-4.329c0-.171.1023-.444.4091-.614.2727-.136.5454-.102.7158 0l14.4873 8.317s.136.103.341 0c.204-.102.204-.34.204-.34l-.068-16.567c-.034-.136.034-.443.341-.682.307-.238.648-.238.852-.136l.648.375 19.123 10.942c.068.034.307.17.545.136.239-.034.307-.102.444-.17l6.374-3.682c.102-.068.443-.17.716 0 .238.137.307.444.307.546v6.067c-.035.137-.035.375-.137.512zm27.543 2.829-3.75 2.182c-.136.102-.443.136-.715-.035-.273-.17-.375-.443-.375-.613l-.035-16.703s0-.17-.17-.307c-.205-.136-.375 0-.375 0l-14.317 8.352c-.102.102-.409.204-.784.034-.375-.137-.511-.443-.545-.648v-.75l-.102-22.055c0-.068 0-.34-.137-.545-.17-.204-.238-.239-.341-.307l-6.374-3.647c-.102-.068-.375-.273-.375-.614 0-.272.239-.477.307-.545l5.249-3.034c.068-.068.273-.136.443-.17.171 0 .375.068.444.102l5.385 3.034c1.296.716 2.114 2.181 2.148 3.715l.034 13.874s0 .17.17.307c.171.136.375 0 .375 0l8.795-5.113c.068-.034.102-.103.102-.205l-.034-16.089c0-.068 0-.307-.102-.443-.136-.239-.341-.341-.409-.375l-5.59-3.341c-.035-.034-.273-.204-.341-.477-.069-.307.136-.58.341-.682l5.215-3.034s.136-.102.341-.102c.204 0 .409.102.477.136l4.806 2.761c.478.375 1.125.853 1.568 1.568.444.75.546 1.603.512 2.182v38.485c0 1.329-.614 2.352-1.841 3.102z"/><path d="m517.216 183.332c-4.124 0-7.669-.647-10.567-1.875-2.999-1.295-5.386-3.033-7.124-5.147-1.841-2.113-3.17-4.602-4.022-7.397-.819-2.829-1.262-5.829-1.262-8.863 0-3.511.512-6.715 1.5-9.476 1.057-2.931 2.42-5.318 4.159-7.261 1.807-2.011 3.988-3.579 6.442-4.601 2.455-1.057 5.25-1.603 8.318-1.603 3.784 0 6.886.784 9.272 2.352 2.318 1.534 4.192 3.58 5.59 6.068 1.329 2.454 2.25 5.215 2.761 8.283.443 2.523.682 5.079.716 7.602v1.704h-30.917c.136 1.296.443 2.693.954 4.159.477 1.534 1.295 2.966 2.42 4.329 1.057 1.295 2.523 2.42 4.227 3.238 1.67.853 3.886 1.296 6.579 1.296.954 0 1.977-.068 2.966-.205.818-.068 1.704-.204 2.692-.341l.989-.136c1.125-.17 2.386-.443 3.818-.818.647-.136 1.227-.341 1.772-.546l.989-.306 1.329-.478v7.363l-1.159.409c-2.488.921-4.772 1.5-6.783 1.739-2.079.341-4.022.511-5.659.511zm-179.13 0c-4.125 0-7.67-.647-10.567-1.875-3-1.295-5.386-3.033-7.124-5.147-1.841-2.113-3.205-4.636-4.023-7.465-.818-2.795-1.261-5.761-1.261-8.863 0-3.511.511-6.715 1.5-9.476.954-2.795 2.352-5.25 4.159-7.261 1.806-2.011 3.988-3.579 6.442-4.602 2.454-1.056 5.25-1.602 8.318-1.602 3.783 0 6.885.784 9.271 2.352 2.318 1.534 4.193 3.58 5.591 6.068 1.329 2.454 2.25 5.215 2.761 8.283.443 2.523.682 5.079.716 7.602v1.704h-30.884c.137 1.295.443 2.693.955 4.159.477 1.534 1.295 2.965 2.42 4.329 1.057 1.295 2.488 2.42 4.227 3.306 1.67.853 3.886 1.296 6.579 1.296.954 0 1.977-.068 2.965-.205 1.227-.136 2.489-.272 3.648-.477 1.159-.17 2.386-.443 3.818-.818.647-.136 1.227-.341 1.772-.546l.989-.306 1.329-.478v7.363l-1.159.409c-2.454.921-4.738 1.5-6.783 1.739-2.114.341-4.057.511-5.659.511zm148.145-1.295h-8.079c-2.863 0-5.147-.75-6.954-2.25-1.841-1.534-2.727-3.613-2.727-6.306v-27.816h-7.329v-7.26h7.329v-12.51h7.977v12.442h10.669v7.226h-10.703v23.452c0 1.807.272 3.239.818 4.295.511.921 1.909 1.398 4.192 1.398h4.807zm-36.883 0h-7.908v-43.632h7.976v42.575zm-34.224 0h-7.772v-43.632h5.693l.409 1.159.579 1.704c1.364-1.022 2.864-1.943 4.398-2.727 1.704-.852 3.476-1.261 5.283-1.261 1.466 0 3.136.238 4.806.682.819.204 1.569.443 2.182.681l1.091.375 1.057.409-3.136 6.375-1.432-.477c-.648-.171-1.295-.375-2.114-.512-1.193-.238-2.386-.375-3.511-.375-1.704 0-3.17.307-4.329.887-1.193.613-2.284 1.329-3.204 2.147zm-39.985 0h-13.601v-65.141h7.772v22.361c1.807-.614 3.818-1.125 5.761-1.5 2.079-.443 4.295-.682 6.477-.682 3.272 0 6.136.682 8.488 1.977 2.386 1.33 4.295 3.034 5.726 5.114 1.466 2.045 2.523 4.363 3.136 6.953.648 2.591.955 5.148.955 7.568 0 3.647-.477 6.988-1.398 9.919-.92 2.864-2.386 5.352-4.397 7.363-1.943 1.943-4.534 3.477-7.738 4.568-3.17.989-6.92 1.5-11.181 1.5zm-78.231 0h-8.658l-.477-1.091-16.669-42.575h8.454l.409 1.09 12.578 33.747 12.851-34.224.273-.613h8.454l-.955 2.352-15.987 40.734zm-33.576 0h-7.976v-43.632h7.976zm-18.816 0h-8.011v-30.815c0-2.489-.784-4.261-2.386-5.25-1.602-1.022-3.613-1.534-5.965-1.534-2.421 0-4.704.409-6.75 1.262-1.943.784-3.954 1.874-6.033 3.204v32.962h-7.84v-64.97h7.772v24.236c1.908-1.125 3.988-2.08 6.135-2.829 2.318-.819 4.841-1.194 7.5-1.194 2.079 0 4.124.341 6.067.955 1.875.648 3.511 1.568 4.909 2.761 1.363 1.125 2.42 2.557 3.306 4.431.784 1.739 1.159 3.784 1.159 6v29.758zm124.828-7.261h5.829c6 0 10.363-1.329 12.954-3.92 2.556-2.59 3.852-6.817 3.852-12.476 0-1.602-.205-3.238-.58-4.943-.375-1.67-.954-3.204-1.772-4.567-.784-1.33-1.875-2.421-3.239-3.273-1.295-.852-2.965-1.295-4.942-1.295-.682 0-1.534.034-2.591.136-.886.068-1.875.205-2.898.307l-.477.068c-1.227.205-2.318.375-3.443.648-1.09.273-1.977.511-2.761.818v28.497zm132.976-17.998h22.532c-.205-1.738-.511-3.238-.886-4.534-.477-1.534-1.091-2.863-1.943-4.09-.852-1.193-1.909-2.114-3.136-2.795-1.193-.716-2.693-1.057-4.466-1.057-1.568 0-3.068.307-4.499.92-1.364.614-2.591 1.5-3.648 2.591-1.056 1.125-1.943 2.488-2.659 4.056-.647 1.5-1.056 3.171-1.295 4.909zm-179.13 0h22.532c-.205-1.773-.512-3.272-.887-4.534-.477-1.602-1.124-2.965-1.943-4.09-.852-1.193-1.908-2.148-3.136-2.795-1.193-.716-2.693-1.057-4.465-1.057-1.568 0-3.068.307-4.5.92-1.363.614-2.59 1.5-3.647 2.591-1.057 1.125-1.943 2.488-2.659 4.056-.613 1.5-1.057 3.171-1.295 4.909zm122.204-26.997c-2.557 0-4.67-2.08-4.67-4.67 0-2.591 2.079-4.67 4.67-4.67 2.556 0 4.67 2.079 4.67 4.67.034 1.227-.443 2.386-1.295 3.238-.921.954-2.114 1.432-3.375 1.432zm-185.846 0c-2.556 0-4.67-2.08-4.67-4.67 0-2.591 2.08-4.67 4.67-4.67 2.557 0 4.67 2.079 4.67 4.67.034 1.227-.443 2.386-1.295 3.238-.92.954-2.113 1.432-3.375 1.432z"/></g></svg>

<svg width="600" height="300" viewBox="0 0 600 300" fill="none" xmlns="http://www.w3.org/2000/svg">
<path d="M123.097 93C91.5657 93 66 118.566 66 150.097C66 181.628 91.5657 207.193 123.097 207.193C154.628 207.193 180.193 181.662 180.193 150.097C180.193 118.566 154.628 93 123.097 93ZM86.3503 128.826C86.7593 128.076 87.4752 127.565 87.9865 127.292L121.358 108.067C122.585 107.351 123.778 107.385 125.04 108.101L128.789 110.248C128.96 110.316 129.13 110.555 129.096 110.896C129.096 111.203 128.892 111.441 128.755 111.51L114.302 119.895C114.302 119.895 114.166 119.963 114.132 120.168C114.098 120.406 114.302 120.509 114.302 120.509L128.687 128.724C128.823 128.758 129.062 128.996 129.096 129.371C129.164 129.781 128.96 130.053 128.789 130.155L128.142 130.53L109.087 141.609C109.019 141.643 108.78 141.779 108.712 142.018C108.609 142.257 108.644 142.359 108.609 142.495V149.858C108.609 149.994 108.541 150.301 108.235 150.472C107.996 150.608 107.723 150.506 107.621 150.472L102.371 147.438C102.269 147.404 102.099 147.267 101.996 147.131C101.894 146.995 101.894 146.79 101.894 146.688L101.826 140.518C101.826 139.052 102.644 137.587 103.974 136.803L115.972 129.849C115.972 129.849 116.143 129.781 116.143 129.576C116.143 129.371 115.972 129.235 115.972 129.235L107.144 124.156C107.076 124.122 106.973 124.122 106.905 124.156L92.9633 132.201C92.8951 132.235 92.6906 132.371 92.6224 132.508C92.4861 132.746 92.4861 132.951 92.4861 133.053L92.3838 139.564C92.3838 139.632 92.3497 139.905 92.1452 140.109C91.9066 140.314 91.5998 140.279 91.3612 140.143L86.1458 137.143C86.1458 137.143 85.9753 137.075 85.8731 136.905C85.7367 136.734 85.7367 136.496 85.7367 136.428V130.905C85.839 130.36 85.9412 129.542 86.3503 128.826ZM131.073 169.936C131.005 170.072 130.835 170.208 130.766 170.242L125.449 173.413C124.188 174.163 122.483 174.163 121.188 173.413L109.155 166.527C109.155 166.527 109.019 166.425 108.814 166.527C108.609 166.629 108.609 166.834 108.609 166.834L108.644 176.992C108.644 177.06 108.678 177.162 108.746 177.196L122.688 185.241C122.756 185.275 122.96 185.377 123.131 185.377C123.404 185.377 123.574 185.275 123.676 185.207L129.369 182.037C129.437 182.003 129.676 181.9 129.948 181.969C130.255 182.071 130.391 182.378 130.391 182.616V188.616C130.391 188.616 130.391 188.786 130.323 188.991C130.221 189.195 130.016 189.297 129.982 189.332L125.21 192.093C124.665 192.331 123.881 192.638 123.063 192.638C122.21 192.638 121.392 192.297 120.915 191.99L87.5774 172.765C86.3503 172.049 85.7708 171.026 85.7708 169.561V165.232C85.7708 165.061 85.8731 164.788 86.1799 164.618C86.4526 164.482 86.7253 164.516 86.8957 164.618L101.383 172.935C101.383 172.935 101.519 173.038 101.724 172.935C101.928 172.833 101.928 172.595 101.928 172.595L101.86 156.028C101.826 155.892 101.894 155.585 102.201 155.346C102.508 155.108 102.849 155.108 103.053 155.21L103.701 155.585L122.824 166.527C122.892 166.561 123.131 166.697 123.369 166.663C123.608 166.629 123.676 166.561 123.813 166.493L130.187 162.811C130.289 162.743 130.63 162.641 130.903 162.811C131.141 162.948 131.21 163.255 131.21 163.357V169.424C131.175 169.561 131.175 169.799 131.073 169.936ZM158.616 172.765L154.866 174.947C154.73 175.049 154.423 175.083 154.151 174.912C153.878 174.742 153.776 174.469 153.776 174.299L153.741 157.596C153.741 157.596 153.741 157.426 153.571 157.289C153.366 157.153 153.196 157.289 153.196 157.289L138.879 165.641C138.777 165.743 138.47 165.845 138.095 165.675C137.72 165.538 137.584 165.232 137.55 165.027V164.277L137.448 142.222C137.448 142.154 137.448 141.882 137.311 141.677C137.141 141.473 137.073 141.438 136.97 141.37L130.596 137.723C130.494 137.655 130.221 137.45 130.221 137.109C130.221 136.837 130.46 136.632 130.528 136.564L135.777 133.53C135.845 133.462 136.05 133.394 136.22 133.36C136.391 133.36 136.595 133.428 136.664 133.462L142.049 136.496C143.345 137.212 144.163 138.677 144.197 140.211L144.231 154.085C144.231 154.085 144.231 154.255 144.401 154.392C144.572 154.528 144.776 154.392 144.776 154.392L153.571 149.279C153.639 149.245 153.673 149.176 153.673 149.074L153.639 132.985C153.639 132.917 153.639 132.678 153.537 132.542C153.401 132.303 153.196 132.201 153.128 132.167L147.538 128.826C147.503 128.792 147.265 128.622 147.197 128.349C147.128 128.042 147.333 127.769 147.538 127.667L152.753 124.633C152.753 124.633 152.889 124.531 153.094 124.531C153.298 124.531 153.503 124.633 153.571 124.667L158.377 127.428C158.855 127.803 159.502 128.281 159.945 128.996C160.389 129.746 160.491 130.599 160.457 131.178V169.663C160.457 170.992 159.843 172.015 158.616 172.765Z" fill="#364153"/>
<path d="M517.216 183.332C513.092 183.332 509.547 182.685 506.649 181.457C503.65 180.162 501.263 178.424 499.525 176.31C497.684 174.197 496.355 171.708 495.503 168.913C494.684 166.084 494.241 163.084 494.241 160.05C494.241 156.539 494.753 153.335 495.741 150.574C496.798 147.643 498.161 145.256 499.9 143.313C501.707 141.302 503.888 139.734 506.342 138.712C508.797 137.655 511.592 137.109 514.66 137.109C518.444 137.109 521.546 137.893 523.932 139.461C526.25 140.995 528.124 143.041 529.522 145.529C530.851 147.983 531.772 150.744 532.283 153.812C532.726 156.335 532.965 158.891 532.999 161.414V163.118H502.082C502.218 164.414 502.525 165.811 503.036 167.277C503.513 168.811 504.331 170.243 505.456 171.606C506.513 172.901 507.979 174.026 509.683 174.844C511.353 175.697 513.569 176.14 516.262 176.14C517.216 176.14 518.239 176.072 519.228 175.935C520.046 175.867 520.932 175.731 521.92 175.594L522.909 175.458C524.034 175.288 525.295 175.015 526.727 174.64C527.374 174.504 527.954 174.299 528.499 174.094L529.488 173.788L530.817 173.31V180.673L529.658 181.082C527.17 182.003 524.886 182.582 522.875 182.821C520.796 183.162 518.853 183.332 517.216 183.332ZM338.086 183.332C333.961 183.332 330.416 182.685 327.519 181.457C324.519 180.162 322.133 178.424 320.395 176.31C318.554 174.197 317.19 171.674 316.372 168.845C315.554 166.05 315.111 163.084 315.111 159.982C315.111 156.471 315.622 153.267 316.611 150.506C317.565 147.711 318.963 145.256 320.77 143.245C322.576 141.234 324.758 139.666 327.212 138.643C329.666 137.587 332.462 137.041 335.53 137.041C339.313 137.041 342.415 137.825 344.801 139.393C347.119 140.927 348.994 142.973 350.392 145.461C351.721 147.915 352.642 150.676 353.153 153.744C353.596 156.267 353.835 158.823 353.869 161.346V163.05H322.985C323.122 164.345 323.428 165.743 323.94 167.209C324.417 168.743 325.235 170.174 326.36 171.538C327.417 172.833 328.848 173.958 330.587 174.844C332.257 175.697 334.473 176.14 337.166 176.14C338.12 176.14 339.143 176.072 340.131 175.935C341.358 175.799 342.62 175.663 343.779 175.458C344.938 175.288 346.165 175.015 347.597 174.64C348.244 174.504 348.824 174.299 349.369 174.094L350.358 173.788L351.687 173.31V180.673L350.528 181.082C348.074 182.003 345.79 182.582 343.745 182.821C341.631 183.162 339.688 183.332 338.086 183.332ZM486.231 182.037H478.152C475.289 182.037 473.005 181.287 471.198 179.787C469.357 178.253 468.471 176.174 468.471 173.481V145.665H461.142V138.405H468.471V125.895H476.448V138.337H487.117V145.563H476.414V169.015C476.414 170.822 476.686 172.254 477.232 173.31C477.743 174.231 479.141 174.708 481.424 174.708H486.231V182.037ZM449.348 182.037H441.44V138.405H449.416V180.98L449.348 182.037ZM415.124 182.037H407.352V138.405H413.045L413.454 139.564L414.033 141.268C415.397 140.246 416.897 139.325 418.431 138.541C420.135 137.689 421.907 137.28 423.714 137.28C425.18 137.28 426.85 137.518 428.52 137.962C429.339 138.166 430.089 138.405 430.702 138.643L431.793 139.018L432.85 139.427L429.714 145.802L428.282 145.325C427.634 145.154 426.987 144.95 426.168 144.813C424.975 144.575 423.782 144.438 422.657 144.438C420.953 144.438 419.487 144.745 418.328 145.325C417.135 145.938 416.044 146.654 415.124 147.472V182.037ZM375.139 182.037H361.538V116.896H369.31V139.257C371.117 138.643 373.128 138.132 375.071 137.757C377.15 137.314 379.366 137.075 381.548 137.075C384.82 137.075 387.684 137.757 390.036 139.052C392.422 140.382 394.331 142.086 395.762 144.166C397.228 146.211 398.285 148.529 398.898 151.119C399.546 153.71 399.853 156.267 399.853 158.687C399.853 162.334 399.376 165.675 398.455 168.606C397.535 171.47 396.069 173.958 394.058 175.969C392.115 177.912 389.524 179.446 386.32 180.537C383.15 181.526 379.4 182.037 375.139 182.037ZM296.908 182.037H288.25L287.773 180.946L271.104 138.371H279.558L279.967 139.461L292.545 173.208L305.396 138.984L305.669 138.371H314.123L313.168 140.723L297.181 181.457L296.908 182.037ZM263.332 182.037H255.356V138.405H263.332V182.037ZM244.516 182.037H236.505V151.222C236.505 148.733 235.721 146.961 234.119 145.972C232.517 144.95 230.506 144.438 228.154 144.438C225.733 144.438 223.45 144.847 221.404 145.7C219.461 146.484 217.45 147.574 215.371 148.904V181.866H207.531V116.896H215.303V141.132C217.211 140.007 219.291 139.052 221.438 138.303C223.756 137.484 226.279 137.109 228.938 137.109C231.017 137.109 233.062 137.45 235.005 138.064C236.88 138.712 238.516 139.632 239.914 140.825C241.277 141.95 242.334 143.382 243.22 145.256C244.004 146.995 244.379 149.04 244.379 151.256V181.014L244.516 182.037ZM369.344 174.776H375.173C381.173 174.776 385.536 173.447 388.127 170.856C390.683 168.266 391.979 164.039 391.979 158.38C391.979 156.778 391.774 155.142 391.399 153.437C391.024 151.767 390.445 150.233 389.627 148.87C388.843 147.54 387.752 146.449 386.388 145.597C385.093 144.745 383.423 144.302 381.446 144.302C380.764 144.302 379.912 144.336 378.855 144.438C377.969 144.506 376.98 144.643 375.957 144.745L375.48 144.813C374.253 145.018 373.162 145.188 372.037 145.461C370.947 145.734 370.06 145.972 369.276 146.279V174.776H369.344ZM502.32 156.778H524.852C524.647 155.04 524.341 153.54 523.966 152.244C523.489 150.71 522.875 149.381 522.023 148.154C521.171 146.961 520.114 146.04 518.887 145.359C517.694 144.643 516.194 144.302 514.421 144.302C512.853 144.302 511.353 144.609 509.922 145.222C508.558 145.836 507.331 146.722 506.274 147.813C505.218 148.938 504.331 150.301 503.615 151.869C502.968 153.369 502.559 155.04 502.32 156.778ZM323.19 156.778H345.722C345.517 155.005 345.21 153.506 344.835 152.244C344.358 150.642 343.711 149.279 342.892 148.154C342.04 146.961 340.984 146.006 339.756 145.359C338.563 144.643 337.063 144.302 335.291 144.302C333.723 144.302 332.223 144.609 330.791 145.222C329.428 145.836 328.201 146.722 327.144 147.813C326.087 148.938 325.201 150.301 324.485 151.869C323.872 153.369 323.428 155.04 323.19 156.778ZM445.394 129.781C442.837 129.781 440.724 127.701 440.724 125.111C440.724 122.52 442.803 120.441 445.394 120.441C447.95 120.441 450.064 122.52 450.064 125.111C450.098 126.338 449.621 127.497 448.769 128.349C447.848 129.303 446.655 129.781 445.394 129.781ZM259.548 129.781C256.992 129.781 254.878 127.701 254.878 125.111C254.878 122.52 256.958 120.441 259.548 120.441C262.105 120.441 264.218 122.52 264.218 125.111C264.252 126.338 263.775 127.497 262.923 128.349C262.003 129.303 260.81 129.781 259.548 129.781Z" fill="#364153"/>
</svg>
